dist/images/icons/icon-category-burger.svg

<svg width="44" height="45" viewBox="0 0 44 45" fill="none" xmlns="http://www.w3.org/2000/svg">
<g clip-path="url(#clip0_669_756)">
<path d="M44 20.3657C44 18.6765 42.9108 17.2377 41.3982 16.7123C41.1658 11.4715 39.2092 7.44966 35.573 4.74701C32.2543 2.28043 27.6878 1.02979 22 1.02979C16.3122 1.02979 11.7457 2.28043 8.42703 4.7471C4.79084 7.44966 2.83422 11.4715 2.60176 16.7123C1.08917 17.2377 0 18.6765 0 20.3657C0 21.3555 0.374172 22.2591 0.987852 22.9438C0.374172 23.6286 0 24.5322 0 25.522C0 27.2216 1.10258 28.6675 2.6296 29.1849C3.18252 35.0752 8.18967 39.7017 14.2656 39.7017H29.7344C35.8103 39.7017 40.8175 35.0752 41.3704 29.1849C42.8974 28.6675 44 27.2216 44 25.522C44 24.5322 43.6258 23.6286 43.0121 22.9438C43.6258 22.2591 44 21.3555 44 20.3657V20.3657ZM22 3.60791C29.3933 3.60791 38.1513 5.88697 38.8034 16.4985H5.19655C5.84873 5.88697 14.6067 3.60791 22 3.60791ZM3.86719 19.0767H40.1328C40.8436 19.0767 41.4219 19.6549 41.4219 20.3657C41.4219 21.0765 40.8436 21.6548 40.1328 21.6548H3.86719C3.1564 21.6548 2.57812 21.0765 2.57812 20.3657C2.57812 19.6549 3.1564 19.0767 3.86719 19.0767ZM29.7344 37.1235H14.2656C9.68455 37.1235 5.88302 33.7562 5.24958 29.3892H6.44531C7.30709 29.3892 7.57943 29.6823 8.12187 30.2664C8.78857 30.9842 9.70166 31.9673 11.6875 31.9673C13.6874 31.9673 14.5766 30.9742 15.226 30.2491C15.7387 29.6765 15.996 29.3892 16.8438 29.3892C17.6915 29.3892 17.9488 29.6765 18.4615 30.2491C19.1109 30.9742 20.0001 31.9673 22 31.9673C23.9999 31.9673 24.8891 30.9742 25.5385 30.2491C26.0512 29.6765 26.3085 29.3892 27.1562 29.3892C28.004 29.3892 28.2613 29.6765 28.774 30.2491C29.4234 30.9742 30.3126 31.9673 32.3125 31.9673C34.3124 31.9673 35.2016 30.9742 35.851 30.2491C36.3637 29.6765 36.621 29.3892 37.4688 29.3892H38.7504C38.117 33.7562 34.3154 37.1235 29.7344 37.1235ZM40.1328 26.811H37.4688C35.4689 26.811 34.5796 27.8041 33.9303 28.5293C33.4176 29.1018 33.1603 29.3892 32.3125 29.3892C31.4647 29.3892 31.2074 29.1018 30.6947 28.5293C30.0454 27.8041 29.1561 26.811 27.1562 26.811C25.1564 26.811 24.2671 27.8041 23.6178 28.5293C23.1051 29.1018 22.8478 29.3892 22 29.3892C21.1522 29.3892 20.8949 29.1018 20.3822 28.5293C19.7329 27.8041 18.8436 26.811 16.8438 26.811C14.8439 26.811 13.9546 27.8041 13.3053 28.5293C12.7926 29.1018 12.5353 29.3892 11.6875 29.3892C10.8257 29.3892 10.5534 29.096 10.0109 28.5119C9.34424 27.7941 8.43116 26.811 6.44531 26.811H3.86719C3.1564 26.811 2.57812 26.2328 2.57812 25.522C2.57812 24.8112 3.1564 24.2329 3.86719 24.2329H40.1328C40.8436 24.2329 41.4219 24.8112 41.4219 25.522C41.4219 26.2328 40.8436 26.811 40.1328 26.811Z" fill="black"/>
<path d="M14.2656 13.9204C14.9776 13.9204 15.5547 13.3433 15.5547 12.6313C15.5547 11.9194 14.9776 11.3423 14.2656 11.3423C13.5537 11.3423 12.9766 11.9194 12.9766 12.6313C12.9766 13.3433 13.5537 13.9204 14.2656 13.9204Z" fill="black"/>
<path d="M29.7344 13.9204C30.4463 13.9204 31.0234 13.3433 31.0234 12.6313C31.0234 11.9194 30.4463 11.3423 29.7344 11.3423C29.0224 11.3423 28.4453 11.9194 28.4453 12.6313C28.4453 13.3433 29.0224 13.9204 29.7344 13.9204Z" fill="black"/>
<path d="M24.5781 11.3423C25.2901 11.3423 25.8672 10.7652 25.8672 10.0532C25.8672 9.34129 25.2901 8.76416 24.5781 8.76416C23.8662 8.76416 23.2891 9.34129 23.2891 10.0532C23.2891 10.7652 23.8662 11.3423 24.5781 11.3423Z" fill="black"/>
<path d="M19.4219 8.76416C20.1338 8.76416 20.7109 8.18703 20.7109 7.4751C20.7109 6.76317 20.1338 6.18604 19.4219 6.18604C18.7099 6.18604 18.1328 6.76317 18.1328 7.4751C18.1328 8.18703 18.7099 8.76416 19.4219 8.76416Z" fill="black"/>
</g>
<defs>
<clipPath id="clip0_669_756">
<rect width="44" height="44" fill="white" transform="translate(0 0.0297852)"/>
</clipPath>
</defs>
</svg>

<svg width="44" height="45" fill="none" xmlns="http://www.w3.org/2000/svg"><g clip-path="url(#clip0_669_756)" fill="#000"><path d="M44 20.366c0-1.69-1.09-3.128-2.602-3.654-.232-5.24-2.189-9.262-5.825-11.965C32.254 2.28 27.688 1.03 22 1.03c-5.688 0-10.254 1.25-13.573 3.717-3.636 2.703-5.593 6.725-5.825 11.965A3.873 3.873 0 000 20.366c0 .99.374 1.893.988 2.578A3.852 3.852 0 000 25.522c0 1.7 1.103 3.146 2.63 3.663.553 5.89 5.56 10.517 11.636 10.517h15.468c6.076 0 11.084-4.627 11.636-10.517A3.873 3.873 0 0044 25.522a3.85 3.85 0 00-.988-2.578A3.851 3.851 0 0044 20.366zM22 3.608c7.393 0 16.151 2.279 16.803 12.89H5.197C5.849 5.887 14.607 3.608 22 3.608zM3.867 19.077h36.266c.71 0 1.289.578 1.289 1.289 0 .71-.578 1.289-1.29 1.289H3.868a1.29 1.29 0 01-1.289-1.29c0-.71.578-1.288 1.29-1.288zm25.867 18.046H14.266c-4.581 0-8.383-3.367-9.016-7.734h1.195c.862 0 1.134.293 1.677.877.667.718 1.58 1.701 3.566 1.701 2 0 2.889-.993 3.538-1.718.513-.572.77-.86 1.618-.86.848 0 1.105.288 1.617.86.65.725 1.54 1.718 3.539 1.718 2 0 2.89-.993 3.538-1.718.513-.572.77-.86 1.618-.86.848 0 1.105.288 1.618.86.65.725 1.539 1.718 3.538 1.718 2 0 2.89-.993 3.539-1.718.513-.572.77-.86 1.618-.86h1.281c-.633 4.367-4.435 7.735-9.016 7.735zm10.399-10.312h-2.664c-2 0-2.89.993-3.539 1.718-.512.573-.77.86-1.617.86-.848 0-1.106-.287-1.618-.86-.65-.725-1.539-1.718-3.539-1.718s-2.889.993-3.538 1.718c-.513.573-.77.86-1.618.86-.848 0-1.105-.287-1.618-.86-.65-.725-1.538-1.718-3.538-1.718-2 0-2.89.993-3.539 1.718-.512.573-.77.86-1.617.86-.862 0-1.135-.293-1.677-.877-.667-.718-1.58-1.701-3.566-1.701H3.867a1.29 1.29 0 01-1.289-1.289c0-.71.578-1.29 1.29-1.29h36.265a1.29 1.29 0 010 2.578z"/><path d="M14.266 13.92a1.289 1.289 0 100-2.578 1.289 1.289 0 000 2.578zm15.468 0a1.289 1.289 0 100-2.578 1.289 1.289 0 000 2.578zm-5.156-2.578a1.289 1.289 0 100-2.578 1.289 1.289 0 000 2.578zm-5.156-2.578a1.289 1.289 0 100-2.578 1.289 1.289 0 000 2.578z"/></g><defs><clipPath id="clip0_669_756"><path fill="#fff" transform="translate(0 .03)" d="M0 0h44v44H0z"/></clipPath></defs></svg>
